!!!SOCIAL_FUNCTION:	songs of the bear dance
!!!PDT:	1922
!!!OTL: No_12_Bear_Dance_Song_(h).krn
!!!REG: Southwest
!!!LANG: Non-Tone
!!!LING_GROUP: Uto-Aztecan
**kern
*staff1
=
*clefF4
*k[b-e-a-d-g-]
*M3/4
16f\
=1
12f\L
12d-\
12e-\J
12e-\L
12d-\
12B-\J
8.A-\L
16e-\Jk
=2
12e-\L
12B-\
12d-\J
12d-\L
12B-\
12A-\J
8.F\L
16A-\Jk
=3
12A-\L
12G-\
12A-\J
16A-\LK
[8.E-\J
8E-\L]
8A-\J
=4||
*M2/4
12A-\L
12G-\
12A-\J
16A-\LK
8.A-\J
=5
16A-\LK
8.A-\J
16A-\LK
8.A-\J
=6
16A-\LK
[8.A-\J
8.A-\]
16r
==
*-
